X: 21021
T: Jump At The Sun
R: jig
M: 6/8
K: Dminor
|:DFA ^G2 A|DFA ^G2 A|dAA dAA|AGF E2 F|
DFA ^G2 A|DFA ^G2 A|dAA BAG|1 FGE D2 E:|
|:dAA fed|eAA gfe|fed fed|ecA {c}B2 A|
dAA fed|eAA gfe|dAA BAG|1 FGE D2 A:|

